X: 41289
T: Tumble Weed, The
R: jig
M: 6/8
K: Amajor
edc dcA|ecA ggg|edc dcA|cAF GGG|
edc dcA|ecA aaa|ggg fff|e2d dcd|
eee dcA|eee dca|ggg fda|ggg agf|
eee dcA|eee dca|cde ddd|GAB AAA|

